X: 18
T: Rambling Pitchfork, The
Z: Balázs
S: https://thesession.org/tunes/89#setting53964
R: jig
M: 6/8
L: 1/8
K: Dmaj
|:E| ~F3 AFF|dFF AFD|GFG ABc|ded cAG|
FEF AFF|dFF AFD|GFG BAG|AFD D2:|
|: A|d2e fed|ecA AFA|d2e fed|f/g/af gfe|
d2e fed|ecA AGF|GFG BAG|1AFD D2:|2 AFD D3||

%-------------------- TUNE SEPARATOR --------------------%

